packages/foundations/assets/icons/functional/images/notification/cross_circle_32_filled.svg

<svg width="32" height="32" viewBox="0 0 32 32" fill="none" xmlns="http://www.w3.org/2000/svg">
<g clip-path="url(#clip0_2214_8058)">
<path fill-rule="evenodd" clip-rule="evenodd" d="M16 2C23.7188 2 30 8.2813 30 16C30 23.7187 23.7188 30 16 30C8.2813 30 2 23.7187 2 16C2 8.2813 8.2813 2 16 2ZM21.5625 9.5C21.3125 9.5 21.0549 9.5861 20.8514 9.7889L16 14.625L11.0861 9.7264C10.9139 9.5548 10.6875 9.5 10.4688 9.5C9.9375 9.5 9.5 9.9063 9.5 10.4375C9.5 10.6875 9.5861 10.9451 9.7889 11.1486L14.625 16L9.7264 20.9139C9.5548 21.0861 9.5 21.3125 9.5 21.5312C9.5 22.0625 9.9063 22.5 10.4375 22.5C10.6875 22.5 10.9451 22.4139 11.1486 22.2111L16 17.375L20.9139 22.2736C21.0861 22.4452 21.3125 22.5 21.5313 22.5C22.0625 22.5 22.5 22.0937 22.5 21.5625C22.5 21.3125 22.4139 21.0549 22.2111 20.8514L17.375 16L22.2736 11.0861C22.4452 10.9139 22.5 10.6875 22.5 10.4688C22.5 9.9375 22.0938 9.5 21.5625 9.5Z" fill="#1A1C1F"/>
</g>
<defs>
<clipPath id="clip0_2214_8058">
<rect width="32" height="32" fill="white"/>
</clipPath>
</defs>
</svg>

<svg xmlns="http://www.w3.org/2000/svg" width="32" height="32" fill="none"><g clip-path="url(#a)"><path fill="#1A1C1F" fill-rule="evenodd" d="M16 2c7.719 0 14 6.281 14 14s-6.281 14-14 14S2 23.719 2 16 8.281 2 16 2m5.563 7.5a1 1 0 0 0-.712.289L16 14.625l-4.914-4.899c-.172-.171-.399-.226-.617-.226-.531 0-.969.406-.969.938 0 .25.086.507.289.71L14.625 16l-4.899 4.914c-.171.172-.226.398-.226.617 0 .532.406.969.938.969.25 0 .507-.086.71-.289L16 17.375l4.914 4.899c.172.171.398.226.617.226.532 0 .969-.406.969-.937a1 1 0 0 0-.289-.712L17.375 16l4.899-4.914c.171-.172.226-.399.226-.617 0-.531-.406-.969-.937-.969" clip-rule="evenodd"/></g><defs><clipPath id="a"><path fill="#fff" d="M0 0h32v32H0z"/></clipPath></defs></svg>
